src/lib/packages/icons/src/assets/line/shield-search.svg

<svg width="24" height="24" viewBox="0 0 24 24" fill="none" xmlns="http://www.w3.org/2000/svg">
<path d="M21.147 4.26487C16.22 3.27987 14.514 2.42005 12.355 1.33005C12.144 1.22505 11.8641 1.23797 11.6531 1.34397C9.46308 2.42997 7.73205 3.28887 2.85205 4.26487C2.50105 4.33487 2.24902 4.64298 2.24902 4.99998V10.8889C2.24902 19.1229 10.173 22.1819 11.762 22.7119C11.839 22.7379 11.919 22.751 11.999 22.751C12.079 22.751 12.1591 22.7379 12.2361 22.7119C13.8251 22.1819 21.749 19.1229 21.749 10.8889V4.99998C21.75 4.64298 21.498 4.33387 21.147 4.26487ZM20.25 10.8889C20.25 17.7539 13.832 20.549 12 21.206C10.168 20.549 3.75 17.7529 3.75 10.8889V5.61301C8.135 4.69701 9.93789 3.86609 12.0149 2.83909C13.9679 3.82009 15.827 4.68701 20.25 5.61301V10.8889ZM7.75 10.917C7.75 12.939 9.39499 14.584 11.417 14.584C12.157 14.584 12.8439 14.3599 13.4199 13.9809L14.969 15.53C15.115 15.676 15.307 15.75 15.499 15.75C15.691 15.75 15.8831 15.677 16.0291 15.53C16.3221 15.237 16.3221 14.762 16.0291 14.469L14.479 12.9189C14.857 12.3419 15.0811 11.655 15.0811 10.915C15.0811 8.89402 13.436 7.24802 11.415 7.24802C9.39504 7.25002 7.75 8.89497 7.75 10.917ZM13.583 10.917C13.583 12.112 12.611 13.084 11.417 13.084C10.222 13.084 9.25 12.112 9.25 10.917C9.25 9.72197 10.222 8.74998 11.417 8.74998C12.611 8.74998 13.583 9.72197 13.583 10.917Z" fill="currentColor"/>
</svg>

<svg xmlns="http://www.w3.org/2000/svg" width="24" height="24" fill="none"><path fill="currentColor" d="M21.147 4.265C16.22 3.28 14.514 2.42 12.355 1.33a.818.818 0 0 0-.702.014c-2.19 1.086-3.921 1.945-8.8 2.92A.75.75 0 0 0 2.248 5v5.889c0 8.234 7.924 11.293 9.513 11.823a.74.74 0 0 0 .474 0c1.59-.53 9.513-3.59 9.513-11.823V5a.747.747 0 0 0-.602-.735Zm-.897 6.624c0 6.865-6.418 9.66-8.25 10.317-1.832-.657-8.25-3.453-8.25-10.317V5.613c4.385-.916 6.188-1.747 8.265-2.774 1.953.981 3.812 1.848 8.235 2.774v5.276Zm-12.5.028a3.671 3.671 0 0 0 3.667 3.667c.74 0 1.427-.224 2.003-.603l1.549 1.549a.748.748 0 0 0 1.06 0 .75.75 0 0 0 0-1.061l-1.55-1.55a3.645 3.645 0 0 0 .602-2.004 3.672 3.672 0 0 0-3.666-3.667 3.674 3.674 0 0 0-3.665 3.669Zm5.833 0a2.17 2.17 0 0 1-2.166 2.167 2.17 2.17 0 0 1-2.167-2.167 2.17 2.17 0 0 1 2.167-2.167 2.17 2.17 0 0 1 2.166 2.167Z"/></svg>
